X:1
T:Title
%%score { ( 1 3 ) | 2 }
L:1/8
M:6/8
K:F
V:1 treble nm="Grand Piano"
V:3 treble 
V:2 bass 
V:1
 z6[Q:1/4=78] | [CA]2 [CA] [=B,_A]2 [B,A] | [CA]2 [B,G] [A,F]2 F/F/ | [DF]2 [^CG] [DF]2 [CG] | %4
[M:5/8] [CA]-[CA]- [CA]3 |[M:1/8] z |[M:3/4] [CA]2 [CA] [=B,_A]2 [B,A] | A-[FA] [GB] [Ac]2 =B/c/ | %8
 [Fd]2 [FG] [FG]2 [FA] |[M:5/8] [EG]-[EG]- [EG]3 |[M:1/8] C/C/ |[M:3/4] A A2 _A2 A | A4- AC/C/ | %13
 [EB] [EB]2 [_EA]2 [EA] |[M:5/8] [EB]-[EB]- [EB]3 |[M:1/8] [FA]/[GB]/ | %16
[M:3/4] [Ac]2 [_A=B] [=Ac]2 ^c | ed- d3 G/A/ | B B2 [FA]2 [EG] |[M:5/8] F-F- F3 |] %20
V:2
 z3 z2 C/C/ | F,,F,F, F,,F,F, | F,,F,F, F,,F,_E/E/ | B,,F,E, B,,F,E, |[M:5/8] F,,F,D, C,2 | %5
[M:1/8] C/C/ |[M:3/4] F,,F, F,F,, F,F, | F,,F, F,F,, F,[K:treble]_A/=A/ | B,,B, B,=B,, =B,B, | %9
[M:5/8] C,CB, G,2 |[M:1/8] C,/C,/ |[M:3/4] [F,CF] [F,CF]2 [F,=B,F]2 [F,B,F] | %12
 [F,CF]4- [F,CF][F,A,]/[F,A,]/ | [C,G,] [C,G,]2 [C,^F,]2 [C,F,] |[M:5/8] [C,G,]-[C,G,]- [C,G,]3 | %15
[M:1/8] [F,C]/[F,C]/ |[M:3/4][K:treble] [F,F]2 [F,F] [F,F]2 [A,EG] | %17
 [B,^CG][B,DF]- [B,DF]3 [B,DF]/[A,DF]/ | [A,DF] [G,^CF]2[K:bass] [C,=C]2 [C,B,] | %19
[M:5/8] [F,A,]-[F,A,]- [F,A,]3 |] %20
V:3
 x6 | x6 | x6 | x6 |[M:5/8] x5 |[M:1/8] x |[M:3/4] x6 | .C2 z2 z2 | x6 |[M:5/8] x5 |[M:1/8] x | %11
[M:3/4] x6 | x6 | x6 |[M:5/8] x5 |[M:1/8] x |[M:3/4] x6 | x6 | x6 |[M:5/8] x5 |] %20

